docs/img/icons/favorites-d.svg

<svg width="96" height="96" viewBox="0 0 96 96" fill="none" xmlns="http://www.w3.org/2000/svg">
<rect width="96" height="96" fill="#397345"/>
<path d="M58.7881 39.1467C58.1071 38.4653 57.2985 37.9249 56.4086 37.5561C55.5187 37.1874 54.5648 36.9976 53.6015 36.9976C52.6381 36.9976 51.6843 37.1874 50.7943 37.5561C49.9044 37.9249 49.0958 38.4653 48.4148 39.1467L47.0015 40.56L45.5881 39.1467C44.2125 37.7711 42.3468 36.9983 40.4015 36.9983C38.4561 36.9983 36.5904 37.7711 35.2148 39.1467C33.8392 40.5222 33.0664 42.3879 33.0664 44.3333C33.0664 46.2787 33.8392 48.1444 35.2148 49.52L36.6281 50.9333L47.0015 61.3067L57.3748 50.9333L58.7881 49.52C59.4695 48.839 60.0099 48.0304 60.3787 47.1405C60.7474 46.2505 60.9372 45.2966 60.9372 44.3333C60.9372 43.37 60.7474 42.4161 60.3787 41.5262C60.0099 40.6362 59.4695 39.8277 58.7881 39.1467V39.1467Z" stroke="white" stroke-width="2" stroke-linecap="round" stroke-linejoin="round"/>
<circle cx="60" cy="36" r="11" fill="#3B3B3B"/>
<path d="M59.6967 38.12V39H55.7477V38.12H57.3097V33.83C57.2437 33.918 57.1411 34.0133 57.0017 34.116C56.8624 34.2113 56.7047 34.303 56.5287 34.391C56.3527 34.479 56.1767 34.5523 56.0007 34.611C55.8247 34.6623 55.6634 34.688 55.5167 34.688V33.764C55.6781 33.764 55.8541 33.72 56.0447 33.632C56.2427 33.5367 56.4334 33.4267 56.6167 33.302C56.8001 33.1773 56.9541 33.06 57.0787 32.95C57.2107 32.84 57.2877 32.763 57.3097 32.719H58.2997V38.12H59.6967ZM62.8449 40.639C62.2876 40.639 61.7852 40.507 61.3379 40.243C60.8906 39.979 60.5532 39.627 60.3259 39.187L60.9309 38.659C61.1362 38.9963 61.4076 39.2677 61.7449 39.473C62.0896 39.6783 62.4599 39.781 62.8559 39.781C63.1932 39.781 63.4939 39.7077 63.7579 39.561C64.0219 39.4143 64.2309 39.2127 64.3849 38.956C64.5389 38.692 64.6159 38.3913 64.6159 38.054C64.6159 37.724 64.5389 37.4343 64.3849 37.185C64.2382 36.9357 64.0366 36.7413 63.7799 36.602C63.5306 36.4627 63.2482 36.393 62.9329 36.393C62.6176 36.393 62.3206 36.4627 62.0419 36.602C61.7706 36.7413 61.5469 36.9393 61.3709 37.196H60.5019L61.3819 32.719H65.1769V33.61H62.0969L61.6239 36.096C61.7852 35.9273 61.9869 35.7953 62.2289 35.7C62.4782 35.5973 62.7532 35.546 63.0539 35.546C63.5379 35.546 63.9706 35.6523 64.3519 35.865C64.7406 36.0777 65.0449 36.371 65.2649 36.745C65.4922 37.119 65.6059 37.5517 65.6059 38.043C65.6059 38.5563 65.4812 39.0073 65.2319 39.396C64.9899 39.792 64.6599 40.0963 64.2419 40.309C63.8239 40.529 63.3582 40.639 62.8449 40.639Z" fill="white"/>
</svg>

<svg width="96" height="96" fill="none" xmlns="http://www.w3.org/2000/svg"><path fill="#397345" d="M0 0h96v96H0z"/><path d="M58.788 39.147a7.333 7.333 0 00-10.373 0l-1.413 1.413-1.414-1.413A7.335 7.335 0 1035.215 49.52l1.413 1.413 10.373 10.374 10.374-10.374 1.413-1.413a7.333 7.333 0 000-10.373v0z" stroke="#fff" stroke-width="2" stroke-linecap="round" stroke-linejoin="round"/><circle cx="60" cy="36" r="11" fill="#3B3B3B"/><path d="M59.697 38.12V39h-3.95v-.88h1.563v-4.29a1.491 1.491 0 01-.308.286 4.03 4.03 0 01-.473.275 4.037 4.037 0 01-.528.22 1.741 1.741 0 01-.484.077v-.924c.161 0 .337-.044.528-.132a4.823 4.823 0 001.034-.682c.132-.11.209-.187.23-.231h.99v5.401h1.398zm3.148 2.519c-.557 0-1.06-.132-1.507-.396a2.593 2.593 0 01-1.012-1.056l.605-.528c.205.337.477.609.814.814.345.205.715.308 1.11.308.338 0 .639-.073.903-.22.264-.147.473-.348.627-.605.154-.264.23-.565.23-.902 0-.33-.076-.62-.23-.869a1.542 1.542 0 00-.605-.583 1.707 1.707 0 00-.847-.209c-.315 0-.612.07-.891.209a1.8 1.8 0 00-.671.594h-.87l.88-4.477h3.796v.891h-3.08l-.473 2.486c.161-.169.363-.3.605-.396.25-.103.524-.154.825-.154.484 0 .917.106 1.298.319.389.213.693.506.913.88.227.374.34.807.34 1.298 0 .513-.124.964-.373 1.353a2.43 2.43 0 01-.99.913c-.418.22-.884.33-1.397.33z" fill="#fff"/></svg>
